packages/storefront-lwc/src/assets/fonts/flags/1x1/cd.svg

<svg height="512" width="512" xmlns="http://www.w3.org/2000/svg" xmlns:xlink="http://www.w3.org/1999/xlink"><clipPath id="a"><path d="m0-88h600v600h-600z"/></clipPath><g clip-path="url(#a)" transform="matrix(.853 0 0 .853 0 75.093)"><path d="m0-88h800v600h-800z" fill="#007fff"/><path d="m36 32h84l26-84 26 84h84l-68 52 26 84-68-52-68 52 26-84zm714-120-750 450v150h50l750-450v-150z" fill="#f7d618"/><path d="m800-88-800 480v120l800-480z" fill="#ce1021"/></g></svg>

<svg xmlns="http://www.w3.org/2000/svg" height="512" width="512" id="flag-icon-css-cd">
  <defs>
    <clipPath id="a">
      <path fill="#fff" d="M0-88h600v600H0z"/>
    </clipPath>
  </defs>
  <g clip-path="url(#a)" transform="matrix(.853 0 0 .853 0 75.093)">
    <path fill="#007fff" d="M0-88h800v600H0z"/>
    <path d="M36 32h84l26-84 26 84h84l-68 52 26 84-68-52-68 52 26-84-68-52zM750-88L0 362v150h50L800 62V-88h-50" fill="#f7d618"/>
    <path d="M800-88L0 392v120L800 32V-88" fill="#ce1021"/>
  </g>
</svg>
